src/lib/packages/icons/src/assets/line/microsoft.svg

<svg xmlns="http://www.w3.org/2000/svg" width="24" height="24" fill="none"><path fill="currentColor" d="M3 11.5h8.5V3H3v8.5Zm1.5-7H10V10H4.5V4.5Zm8-1.5v8.5H21V3h-8.5Zm7 7H14V4.5h5.5V10ZM3 21h8.5v-8.5H3V21Zm1.5-7H10v5.5H4.5V14Zm8 7H21v-8.5h-8.5V21Zm1.5-7h5.5v5.5H14V14Z"/></svg>

<svg width="24" height="24" viewBox="0 0 24 24" fill="none" xmlns="http://www.w3.org/2000/svg">
<path d="M3 11.5H11.5V3H3V11.5ZM4.5 4.5H10V10H4.5V4.5ZM12.5 3V11.5H21V3H12.5ZM19.5 10H14V4.5H19.5V10ZM3 21H11.5V12.5H3V21ZM4.5 14H10V19.5H4.5V14ZM12.5 21H21V12.5H12.5V21ZM14 14H19.5V19.5H14V14Z" fill="currentColor"/>
</svg>
